X:200
T: Guoshu kaihua duoduo xiang
N: C1692
O: China, Jiangxi, Jinxian
S: IV, 261]
R: Xiaodiao]
M: 2/4
L: 1/16
K: C
c2c2c2c2 | c2A2c2c2A2c2 | ccAcd4
eedcAcdc | A3GG4
e2edAcd2 | ccAAG2G2
ccAAG2G2
GAGGccAcd4
ccAAdcAA | c2dcA2A2 | G4G4
c2dcA2A2 | G4G4
c2ded2dc | Acded2dc
AcdcA3G | G8

